file/foot-locker.svg

<svg clip-rule="evenodd" fill-rule="evenodd" stroke-linejoin="round" stroke-miterlimit="1.41421" viewBox="0 0 560 400" xmlns="http://www.w3.org/2000/svg"><g fill-rule="nonzero" transform="matrix(.860956 0 0 .860956 107.852 70.2109)"><path d="m123 123.8 2.1 3.1c-2.2 2.4-5.3 3.8-9.2 4.4l-1.1 1.4-.2 2.3 2.7 9.5 4.6 8.6c1.3 2.1 8.3 7.9 21 17.6l5.5 5.9 4 .4c3.1-2.6 5.8-4.1 8.4-4.4l.5-12.3-2.8-18.4.9-31.7 2.8-3.9c-.8 5.4-.8 9.5-.2 12v58.7l2.5 3.9 1.5-28c.8-14.9.9-24.5.6-28.7l-.6-7 .9-5.2 4.2-5.5-1.6 15.7-2.6 63-1.7 12.7h5.4l2.4-38c.7-20.7 1.4-34.1 2.1-40 .3-3.5 1.4-8.6 3-15.2l1-1.4.5 1.4.1 4-2.7 66.5-1.5 10.4.4 12.3h5.5l7.2-89.6 4.5-1.8-6 91.4h8.1l5.8-89.6 2.4-3.1 2.5 2.6-4.2 90.1h6.8l1.5-43.8 4.9 2.1-1.1 41.7h7v-28.5l1.9-12.6c1 0 2.1-.7 3.1-2.3l-2.5 43.4h4.5l4.7-72.2c.2-7.3-.8-14.5-3.1-21.4l3.7 3.2 2.6 20.5-5.3 69.9h4.1l.2-2.9 6-1.6c3.7-3.2 18.3-11.9 44.1-26.2l13.2-13.4-1.1-4.9-9.8-14-12.1-10.4-3.2-4-14.8-10.5-18.8-8.5c-3.2-1.6-7.7-3.1-13.5-4.8l-1.5-1-6.3-2.3c-4.7-1.3-4.2-2.5 1.4-4 3-1 4.5-2.1 4.7-3.5 0-1.1-.5-2.3-1.4-3.4l.2-1.8 2-3.4c-.6-2-.8-3.9-.8-5.8l2.6-1.4.8-1.7-.6-1.6-3.9-3.3c.1-2.1-.1-4.6-1-7.2l-1.2-4c-.2-1 .7-3.4 2.6-7.3l-2.1-6.2-1.6-1.5-5.8.2c-1.8-1.6-4.8-2.5-9.2-2.9l-8.1 1.7-6.9.6-3.9 3.2-5.2 2.8c-1.8 3.7-3.5 5.8-5.5 6.4l-2.6 7.2 5.5 20.1 4.9 7 2.5 2.3v4.3h-1.2l-6.2 4.9-18.4 2.6-22.5 11.5-32.6 21.2-2.9 4.9-.2 8.2 5.8 11.3 9.8 10c12.9 8 25.8 15.8 38.7 23.5l2.9 3.3-2.1 5.9h7.2c1.1-2.7 1.6-5.5 1.5-8.4 0-2.2-.6-4.3-1.9-6.3h-8.8l-5.5-2.6c-3.2-2.5-7.2-5-11.7-7.6-4.3-2.5-8.6-5.5-13.1-8.7-8-6.3-13.6-12.3-16.7-18l-1.1-4.4.2-5 1.4-2.7 5.5-5.3 9.2-5.2zm9.4 3.4v-1.8l23.2-14 .1 2-19.3 14.2-2.3.8zm-3-8-.5-1.6 28-15-1.4 2.6-18.7 10.9zm26.5 5.1-.8 1.5-15.3 9-.8 1.3-.8-1.3.5-1.5 13.5-10.6 3.5-.3zm-2.2 9c.3 4.6.7 9 1.3 13.3l2.9 23.2-2.2.6-3 .2c-4.5-3.8-8.7-8-12.6-12.7-3.2-4.2-6.1-8.6-8.5-13.4l.7-1.2c3.9-2.6 8-4.9 12.1-7.2 2.7-1.3 5.6-2.6 8.6-3.7zm108.5-5.3-.2 1.5-2.9-.6-15.6-9.7h-2.5l-2.6-2.1-.8-3.2c2.6.8 5.1 1.9 7.4 3.2zm4-4.6-4-1.3-16.7-11.6c-4.9-2.1-7.5-3.1-8-3.1l-.3-2.4 5.3.7 25 16.9zm-49.8-65.5-.8 1.1-6.9 3.1 1.6 2.7 6.3 1.1 3.9-.8 2.9 2.5-2.5 1.8-2 .8 2 2.2v1l-3.2.7-2.1 2.2.2 1.9 2.9-.7 1.2-.1.5.8-2.1 1c-.3 0-.8.7-1.3 2.3h.9l1.2 2.3c.2.7-.6 1.2-1.9 1.5l-9.2-1.7-9.8.2-3.8 2.3v1.6l5 4.1-.4 6.9c0 1-.8.8-2.6-.3l-9.6-6 .2-5.8 1.2-.2 2.6-11.4-3.4-4.4-.4-5.2 1.7-1.9 3.5-.6 4.3 3.7h2.3l1-4.4 9.2-5.8h6.3zm-21 52c0-.7.4-1.1 1.2-1.1.7 0 1.1.4 1.1 1.1 0 .9-.3 1.2-1.1 1.2s-1.2-.3-1.2-1.2zm1.7 14.2c0 .9-.4 1.3-1.2 1.3s-1.3-.4-1.3-1.3c0-.8.5-1.2 1.3-1.2s1.2.4 1.2 1.2zm15.9-16.2.8-.2 3.2 6.7.2 4.6-.6 10.4h-5.3zm10.3 3.2 3.5-2.3-.6 20.7h-3.4zm33.4 23.1 1.2 2.2-2.1 1.5-10.6-5.4-5.6-9zm-13 10.3.5-5.2c2.1.6 3.9 1.3 5.6 2.3 5.8 3.4 11.3 6.9 16.6 10.8-6.1 6.3-12.4 12.2-19.3 17.5-3.4 2.8-7.1 5.1-11.2 6.8l3.5-10.4zm-4.8-5.5-.1-7.5c0-1.3.5-1.6 1.5-.7.4.7.8 2.2.9 4.7l-1.5 13.9-2.3 9.7zm-11.6-3.7v1.2h-15.9v-1.2zm0-3.5v1.5h-15.9v-1.5h15.9l8.6 54.5.1-7.2 7.8-.9 27.9-25.4-9.2-9.4 6-8.6 2.4.2 11.8 15.3-.7 3.1c-6.2 5.8-12.7 11.2-19.8 16.1-8.6 6.1-17.2 11.8-26.3 16.8zm-34.6-67-3.7-.1-.9 1.8.6 1.4 1.4-.2.8 1.5 1.2 1.4 1.2-.1.6-2.9z" fill="#161413"/><path d="m136.6 215.6h-14.1v12.8h-5.8v12.7h5.8v18.3c0 1.8.7 3.5 2.1 4.9 1.6 1.3 3.2 2 5.1 2h15.1v-12.6h-4.9c-2.1 0-3.1-1.2-3.1-3.4v-9.2h5.4v-12.7h-5.4zm50.4-3.4h-14.1v47.3c0 4.6 2.2 6.8 6.9 6.8h21v-12.6h-10.5c-2.1 0-3.3-1.2-3.3-3.4zm188.4 15.3c-4.7 0-7 2.2-7 6.9v31.9h14.1v-23c0-2.1 1.1-3.1 3.2-3.1h7.4v-12.7zm-363.2-15.3c-2 0-3.6.7-5.2 2.1-1.3 1.4-2.1 3.1-2.1 5.1v46.9h14.3v-19.3h7.6v-12.7h-7.6v-6.1c0-2.3 1.2-3.4 3.2-3.4h10.6v-12.7h-20.8zm52.2 20.5c-3.9-3.9-8.6-5.8-13.9-5.8-5.7 0-10.3 1.9-14.1 5.8-3.9 3.9-5.9 8.7-5.9 14.1 0 5.7 2 10.3 5.9 14.1 3.9 3.9 8.6 6 14.1 6 5.3 0 10-2.1 13.9-6s5.9-8.6 5.9-14.1c0-5.4-2-10.1-5.9-14.1zm-19.9 14.1c0-3.8 2.1-5.7 6-5.7 3.8 0 5.8 1.9 5.8 5.7 0 3.9-2 5.8-5.8 5.8-4-.1-6-2-6-5.8zm63.6-14.1c-3.9-3.9-8.6-5.8-13.9-5.8-5.6 0-10.3 1.9-14.1 5.8-3.9 3.9-5.9 8.7-5.9 14.1 0 5.7 2 10.3 5.9 14.1 3.9 3.9 8.6 6 14.1 6 5.3 0 10-2.1 13.9-6s5.9-8.6 5.9-14.1c0-5.4-1.9-10.1-5.9-14.1zm-19.9 14.1c0-3.8 2.1-5.7 6-5.7s5.8 1.9 5.8 5.7c0 3.9-1.9 5.8-5.8 5.8-3.9-.1-6-2-6-5.8zm149.8-14.1c-3.9-3.9-8.6-5.8-14.1-5.8s-10.1 1.9-14.1 5.8c-3.9 3.9-5.8 8.7-5.8 14.1 0 5.7 1.9 10.3 5.8 14.1 3.9 3.9 8.6 6 14.1 6 5.6 0 10.3-2.1 14.1-6 4-3.9 5.8-8.5 5.8-14.1 0-5.4-1.9-10.1-5.8-14.1zm-18.2 10.1c1.2-1.1 2.5-1.6 4-1.6 3.9 0 5.8 1.9 5.8 5.7 0 3.9-1.9 5.8-5.8 5.8s-5.7-1.9-5.7-5.8c.1-1.5.6-2.8 1.7-4.1zm34.3-10.1c-3.9 3.9-5.9 8.7-5.9 14.1 0 5.7 2 10.3 5.9 14.1 3.9 3.9 8.6 6 14.1 6 7.1 0 12.7-3.1 16.7-9.2l-12-7.7c-1.2 1.7-2.6 2.5-4.7 2.5-4 0-6-1.9-6-5.8 0-3.8 2.1-5.7 6-5.7 2.1 0 3.5.9 4.7 2.7l12-7.7c-4-6.1-9.6-9.2-16.7-9.2-5.6.2-10.2 2.1-14.1 5.9zm137.2 26.2c-2.4 0-3.6 1.2-3.6 3.7s1.2 3.7 3.6 3.7c2.5 0 3.7-1.2 3.7-3.7s-1.2-3.7-3.7-3.7zm-3 3.7c0-2 .9-3 3-3s3.1 1.1 3.1 3c0 2.1-1.1 3.1-3.1 3.1-2.1 0-3-1.1-3-3.1zm4.9-.9c0-.8-.4-1.2-1.4-1.2h-1.9v4h.6v-1.8h.7l1.2 1.8h.8l-1.3-1.8c.9.1 1.3-.2 1.3-1zm-2.7.5v-1.1h1.1l1.1.3c0 .5-.5.7-1.4.7h-.8zm-88-23.5v-26.6h-14.3v54.1h14.3v-11.4l9.5 11.4h16.5l-16.8-20.1 13.3-16.3h-15.4zm62 6.6c0-3.3-1.3-6.8-4-10.7-3.5-4.8-8.2-7.4-14.5-7.7-7.6-.4-13.4 2.2-17.6 8.1-2.6 3.6-3.9 7.6-3.9 11.8 0 5.7 2.1 10.3 6 14.1 3.9 3.9 8.6 6 14.1 6 4.6 0 8.7-1.3 12.2-4.1l4.8-5.1-11.5-7.4-1.4 1.6c-1.9 1.6-4 1.9-6.3 1.1l-2.9-2.2zm-21.9-4.9c2.8-.8 5-.1 6.8 2.1l-11.1 2.5c.8-2.2 2.1-3.6 4.3-4.6z" fill="#e52935"/></g></svg>

<?xml version="1.0" encoding="UTF-8" standalone="no"?>
<!DOCTYPE svg PUBLIC "-//W3C//DTD SVG 1.1//EN" "http://www.w3.org/Graphics/SVG/1.1/DTD/svg11.dtd">
<svg width="100%" height="100%" viewBox="0 0 560 400" version="1.1" xmlns="http://www.w3.org/2000/svg" xmlns:xlink="http://www.w3.org/1999/xlink" xml:space="preserve" xmlns:serif="http://www.serif.com/" style="fill-rule:evenodd;clip-rule:evenodd;stroke-linejoin:round;stroke-miterlimit:1.41421;">
    <g transform="matrix(0.860956,0,0,0.860956,107.852,70.2109)">
        <path id="logo_2_" d="M123,123.8L125.1,126.9C122.9,129.3 119.8,130.7 115.9,131.3L114.8,132.7L114.6,135L117.3,144.5L121.9,153.1C123.2,155.2 130.2,161 142.9,170.7L148.4,176.6L152.4,177C155.5,174.4 158.2,172.9 160.8,172.6L161.3,160.3L158.5,141.9L159.4,110.2L162.2,106.3C161.4,111.7 161.4,115.8 162,118.3L162,177L164.5,180.9L166,152.9C166.8,138 166.9,128.4 166.6,124.2L166,117.2L166.9,112L171.1,106.5L169.5,122.2L166.9,185.2L165.2,197.9L170.6,197.9L173,159.9C173.7,139.2 174.4,125.8 175.1,119.9C175.4,116.4 176.5,111.3 178.1,104.7L179.1,103.3L179.6,104.7L179.7,108.7L177,175.2L175.5,185.6L175.9,197.9L181.4,197.9L188.6,108.3L193.1,106.5L187.1,197.9L195.2,197.9L201,108.3L203.4,105.2L205.9,107.8L201.7,197.9L208.5,197.9L210,154.1L214.9,156.2L213.8,197.9L220.8,197.9L220.8,169.4L222.7,156.8C223.7,156.8 224.8,156.1 225.8,154.5L223.3,197.9L227.8,197.9L232.5,125.7C232.7,118.4 231.7,111.2 229.4,104.3L233.1,107.5L235.7,128L230.4,197.9L234.5,197.9L234.7,195L240.7,193.4C244.4,190.2 259,181.5 284.8,167.2L298,153.8L296.9,148.9L287.1,134.9L275,124.5L271.8,120.5L257,110L238.2,101.5C235,99.9 230.5,98.4 224.7,96.7L223.2,95.7L216.9,93.4C212.2,92.1 212.7,90.9 218.3,89.4C221.3,88.4 222.8,87.3 223,85.9C223,84.8 222.5,83.6 221.6,82.5L221.8,80.7L223.8,77.3C223.2,75.3 223,73.4 223,71.5L225.6,70.1L226.4,68.4L225.8,66.8L221.9,63.5C222,61.4 221.8,58.9 220.9,56.3L219.7,52.3C219.5,51.3 220.4,48.9 222.3,45L220.2,38.8L218.6,37.3L212.8,37.5C211,35.9 208,35 203.6,34.6L195.5,36.3L188.6,36.9L184.7,40.1L179.5,42.9C177.7,46.6 176,48.7 174,49.3L171.4,56.5L176.9,76.6L181.8,83.6L184.3,85.9L184.3,90.2L183.1,90.2L176.9,95.1L158.5,97.7L136,109.2L103.4,130.4L100.5,135.3L100.3,143.5L106.1,154.8L115.9,164.8C128.8,172.8 141.7,180.6 154.6,188.3L157.5,191.6L155.4,197.5L162.6,197.5C163.7,194.8 164.2,192 164.1,189.1C164.1,186.9 163.5,184.8 162.2,182.8L153.4,182.8L147.9,180.2C144.7,177.7 140.7,175.2 136.2,172.6C131.9,170.1 127.6,167.1 123.1,163.9C115.1,157.6 109.5,151.6 106.4,145.9L105.3,141.5L105.5,136.5L106.9,133.8L112.4,128.5L121.6,123.3L123,123.8ZM132.4,127.2L132.4,125.4L155.6,111.4L155.7,113.4L136.4,127.6L134.1,128.4L132.4,127.2ZM129.4,119.2L128.9,117.6L156.9,102.6L155.5,105.2L136.8,116.1L129.4,119.2ZM155.9,124.3L155.1,125.8L139.8,134.8L139,136.1L138.2,134.8L138.7,133.3L152.2,122.7L155.7,122.4L155.9,124.3ZM153.7,133.3C154,137.9 154.4,142.3 155,146.6L157.9,169.8L155.7,170.4L152.7,170.6C148.2,166.8 144,162.6 140.1,157.9C136.9,153.7 134,149.3 131.6,144.5L132.3,143.3C136.2,140.7 140.3,138.4 144.4,136.1C147.1,134.8 150,133.5 153,132.4L153.7,133.3ZM262.2,128L262,129.5L259.1,128.9L243.5,119.2L241,119.2L238.4,117.1L237.6,113.9C240.2,114.7 242.7,115.8 245,117.1L262.2,128ZM266.2,123.4L262.2,122.1L245.5,110.5C240.6,108.4 238,107.4 237.5,107.4L237.2,105L242.5,105.7L267.5,122.6L266.2,123.4ZM216.4,57.9L215.6,59L208.7,62.1L210.3,64.8L216.6,65.9L220.5,65.1L223.4,67.6L220.9,69.4L218.9,70.2L220.9,72.4L220.9,73.4L217.7,74.1L215.6,76.3L215.8,78.2L218.7,77.5L219.9,77.4L220.4,78.2L218.3,79.2C218,79.2 217.5,79.9 217,81.5L217.9,81.5L219.1,83.8C219.3,84.5 218.5,85 217.2,85.3L208,83.6L198.2,83.8L194.4,86.1L194.4,87.7L199.4,91.8L199,98.7C199,99.7 198.2,99.5 196.4,98.4L186.8,92.4L187,86.6L188.2,86.4L190.8,75L187.4,70.6L187,65.4L188.7,63.5L192.2,62.9L196.5,66.6L198.8,66.6L199.8,62.2L209,56.4L215.3,56.4L216.4,57.9ZM195.4,109.9C195.4,109.2 195.8,108.8 196.6,108.8C197.3,108.8 197.7,109.2 197.7,109.9C197.7,110.8 197.4,111.1 196.6,111.1C195.8,111.1 195.4,110.8 195.4,109.9ZM197.1,124.1C197.1,125 196.7,125.4 195.9,125.4C195.1,125.4 194.6,125 194.6,124.1C194.6,123.3 195.1,122.9 195.9,122.9C196.7,122.9 197.1,123.3 197.1,124.1ZM213,107.9L213.8,107.7L217,114.4L217.2,119L216.6,129.4L211.3,129.4L213,107.9ZM223.3,111.1L226.8,108.8L226.2,129.5L222.8,129.5L223.3,111.1ZM256.7,134.2L257.9,136.4L255.8,137.9L245.2,132.5L239.6,123.5L256.7,134.2ZM243.7,144.5L244.2,139.3C246.3,139.9 248.1,140.6 249.8,141.6C255.6,145 261.1,148.5 266.4,152.4C260.3,158.7 254,164.6 247.1,169.9C243.7,172.7 240,175 235.9,176.7L239.4,166.3L243.7,144.5ZM238.9,139L238.8,131.5C238.8,130.2 239.3,129.9 240.3,130.8C240.7,131.5 241.1,133 241.2,135.5L239.7,149.4L237.4,159.1L238.9,139ZM227.3,135.3L227.3,136.5L211.4,136.5L211.4,135.3L227.3,135.3ZM227.3,131.8L227.3,133.3L211.4,133.3L211.4,131.8L227.3,131.8L235.9,186.3L236,179.1L243.8,178.2L271.7,152.8L262.5,143.4L268.5,134.8L270.9,135L282.7,150.3L282,153.4C275.8,159.2 269.3,164.6 262.2,169.5C253.6,175.6 245,181.3 235.9,186.3L227.3,131.8ZM192.7,64.8L189,64.7L188.1,66.5L188.7,67.9L190.1,67.7L190.9,69.2L192.1,70.6L193.3,70.5L193.9,67.6L192.7,64.8Z" style="fill:rgb(22,20,19);fill-rule:nonzero;"/>
        <path id="logo_1_" d="M136.6,215.6L122.5,215.6L122.5,228.4L116.7,228.4L116.7,241.1L122.5,241.1L122.5,259.4C122.5,261.2 123.2,262.9 124.6,264.3C126.2,265.6 127.8,266.3 129.7,266.3L144.8,266.3L144.8,253.7L139.9,253.7C137.8,253.7 136.8,252.5 136.8,250.3L136.8,241.1L142.2,241.1L142.2,228.4L136.8,228.4L136.6,215.6ZM187,212.2L172.9,212.2L172.9,259.5C172.9,264.1 175.1,266.3 179.8,266.3L200.8,266.3L200.8,253.7L190.3,253.7C188.2,253.7 187,252.5 187,250.3L187,212.2ZM375.4,227.5C370.7,227.5 368.4,229.7 368.4,234.4L368.4,266.3L382.5,266.3L382.5,243.3C382.5,241.2 383.6,240.2 385.7,240.2L393.1,240.2L393.1,227.5L375.4,227.5ZM12.2,212.2C10.2,212.2 8.6,212.9 7,214.3C5.7,215.7 4.9,217.4 4.9,219.4L4.9,266.3L19.2,266.3L19.2,247L26.8,247L26.8,234.3L19.2,234.3L19.2,228.2C19.2,225.9 20.4,224.8 22.4,224.8L33,224.8L33,212.1L12.2,212.1L12.2,212.2ZM64.4,232.7C60.5,228.8 55.8,226.9 50.5,226.9C44.8,226.9 40.2,228.8 36.4,232.7C32.5,236.6 30.5,241.4 30.5,246.8C30.5,252.5 32.5,257.1 36.4,260.9C40.3,264.8 45,266.9 50.5,266.9C55.8,266.9 60.5,264.8 64.4,260.9C68.3,257 70.3,252.3 70.3,246.8C70.3,241.4 68.3,236.7 64.4,232.7ZM44.5,246.8C44.5,243 46.6,241.1 50.5,241.1C54.3,241.1 56.3,243 56.3,246.8C56.3,250.7 54.3,252.6 50.5,252.6C46.5,252.5 44.5,250.6 44.5,246.8ZM108.1,232.7C104.2,228.8 99.5,226.9 94.2,226.9C88.6,226.9 83.9,228.8 80.1,232.7C76.2,236.6 74.2,241.4 74.2,246.8C74.2,252.5 76.2,257.1 80.1,260.9C84,264.8 88.7,266.9 94.2,266.9C99.5,266.9 104.2,264.8 108.1,260.9C112,257 114,252.3 114,246.8C114,241.4 112.1,236.7 108.1,232.7ZM88.2,246.8C88.2,243 90.3,241.1 94.2,241.1C98.1,241.1 100,243 100,246.8C100,250.7 98.1,252.6 94.2,252.6C90.3,252.5 88.2,250.6 88.2,246.8ZM238,232.7C234.1,228.8 229.4,226.9 223.9,226.9C218.4,226.9 213.8,228.8 209.8,232.7C205.9,236.6 204,241.4 204,246.8C204,252.5 205.9,257.1 209.8,260.9C213.7,264.8 218.4,266.9 223.9,266.9C229.5,266.9 234.2,264.8 238,260.9C242,257 243.8,252.4 243.8,246.8C243.8,241.4 241.9,236.7 238,232.7ZM219.8,242.8C221,241.7 222.3,241.2 223.8,241.2C227.7,241.2 229.6,243.1 229.6,246.9C229.6,250.8 227.7,252.7 223.8,252.7C219.9,252.7 218.1,250.8 218.1,246.9C218.2,245.4 218.7,244.1 219.8,242.8ZM254.1,232.7C250.2,236.6 248.2,241.4 248.2,246.8C248.2,252.5 250.2,257.1 254.1,260.9C258,264.8 262.7,266.9 268.2,266.9C275.3,266.9 280.9,263.8 284.9,257.7L272.9,250C271.7,251.7 270.3,252.5 268.2,252.5C264.2,252.5 262.2,250.6 262.2,246.7C262.2,242.9 264.3,241 268.2,241C270.3,241 271.7,241.9 272.9,243.7L284.9,236C280.9,229.9 275.3,226.8 268.2,226.8C262.6,227 258,228.9 254.1,232.7ZM391.3,258.9C388.9,258.9 387.7,260.1 387.7,262.6C387.7,265.1 388.9,266.3 391.3,266.3C393.8,266.3 395,265.1 395,262.6C395,260.1 393.8,258.9 391.3,258.9ZM388.3,262.6C388.3,260.6 389.2,259.6 391.3,259.6C393.4,259.6 394.4,260.7 394.4,262.6C394.4,264.7 393.3,265.7 391.3,265.7C389.2,265.7 388.3,264.6 388.3,262.6ZM393.2,261.7C393.2,260.9 392.8,260.5 391.8,260.5L389.9,260.5L389.9,264.5L390.5,264.5L390.5,262.7L391.2,262.7L392.4,264.5L393.2,264.5L391.9,262.7C392.8,262.8 393.2,262.5 393.2,261.7ZM390.5,262.2L390.5,261.1L391.6,261.1L392.7,261.4C392.7,261.9 392.2,262.1 391.3,262.1L390.5,262.1L390.5,262.2ZM302.5,238.7L302.5,212.1L288.2,212.1L288.2,266.2L302.5,266.2L302.5,254.8L312,266.2L328.5,266.2L311.7,246.1L325,229.8L309.6,229.8L302.5,238.7ZM364.5,245.3C364.5,242 363.2,238.5 360.5,234.6C357,229.8 352.3,227.2 346,226.9C338.4,226.5 332.6,229.1 328.4,235C325.8,238.6 324.5,242.6 324.5,246.8C324.5,252.5 326.6,257.1 330.5,260.9C334.4,264.8 339.1,266.9 344.6,266.9C349.2,266.9 353.3,265.6 356.8,262.8L361.6,257.7L350.1,250.3L348.7,251.9C346.8,253.5 344.7,253.8 342.4,253L339.5,250.8L364.5,245.3ZM342.6,240.4C345.4,239.6 347.6,240.3 349.4,242.5L338.3,245C339.1,242.8 340.4,241.4 342.6,240.4Z" style="fill:rgb(229,41,53);fill-rule:nonzero;"/>
    </g>
</svg>
